docs/assets/img/details/btnIcons/comment.svg

<?xml version="1.0" encoding="UTF-8"?>
<svg width="28px" height="27px" viewBox="0 0 28 27" version="1.1" xmlns="http://www.w3.org/2000/svg" xmlns:xlink="http://www.w3.org/1999/xlink">
    <title>comment</title>
    <g id="Welcome" stroke="none" stroke-width="1" fill="none" fill-rule="evenodd">
        <g id="lpw-featured-development-detailed-page-1.0" transform="translate(-1279.000000, -1835.000000)" fill="#018E37" fill-rule="nonzero">
            <g id="comment" transform="translate(1279.000000, 1835.000000)">
                <path d="M6.53333333,26.1333333 C6.39613333,26.1333333 6.258,26.1025333 6.12826667,26.0409333 C5.80626667,25.8850667 5.6,25.5593333 5.6,25.2 L5.6,20.5333333 L2.8,20.5333333 C1.25626667,20.5333333 0,19.2770667 0,17.7333333 L0,2.8 C0,1.25626667 1.25626667,0 2.8,0 L25.2,0 C26.7437333,0 28,1.25626667 28,2.8 L28,17.7333333 C28,19.2770667 26.7437333,20.5333333 25.2,20.5333333 L13.8609333,20.5333333 L7.11666667,25.9289333 C6.94773333,26.0642667 6.74146667,26.1333333 6.53333333,26.1333333 Z M2.8,1.86666667 C2.2848,1.86666667 1.86666667,2.28573333 1.86666667,2.8 L1.86666667,17.7333333 C1.86666667,18.2476 2.2848,18.6666667 2.8,18.6666667 L6.53333333,18.6666667 C7.04946667,18.6666667 7.46666667,19.0838667 7.46666667,19.6 L7.46666667,23.2586667 L12.95,18.8710667 C13.1161333,18.7385333 13.3205333,18.6666667 13.5333333,18.6666667 L25.2,18.6666667 C25.7152,18.6666667 26.1333333,18.2476 26.1333333,17.7333333 L26.1333333,2.8 C26.1333333,2.28573333 25.7152,1.86666667 25.2,1.86666667 L2.8,1.86666667 Z" id="Shape"></path>
                <path d="M21.4666667,9.33333333 L6.53333333,9.33333333 C6.0172,9.33333333 5.6,8.9152 5.6,8.4 C5.6,7.8848 6.0172,7.46666667 6.53333333,7.46666667 L21.4666667,7.46666667 C21.9828,7.46666667 22.4,7.8848 22.4,8.4 C22.4,8.9152 21.9828,9.33333333 21.4666667,9.33333333 Z" id="Path"></path>
                <path d="M14,13.0666667 L6.53333333,13.0666667 C6.0172,13.0666667 5.6,12.6485333 5.6,12.1333333 C5.6,11.6181333 6.0172,11.2 6.53333333,11.2 L14,11.2 C14.5161333,11.2 14.9333333,11.6181333 14.9333333,12.1333333 C14.9333333,12.6485333 14.5161333,13.0666667 14,13.0666667 Z" id="Path"></path>
            </g>
        </g>
    </g>
</svg>

<svg width="28" height="27" xmlns="http://www.w3.org/2000/svg"><g fill="#018E37"><path d="M6.533 26.133A.935.935 0 015.6 25.2v-4.667H2.8a2.803 2.803 0 01-2.8-2.8V2.8C0 1.256 1.256 0 2.8 0h22.4C26.744 0 28 1.256 28 2.8v14.933c0 1.544-1.256 2.8-2.8 2.8H13.86L7.118 25.93a.932.932 0 01-.584.204zM2.8 1.867a.934.934 0 00-.933.933v14.933c0 .515.418.934.933.934h3.733c.516 0 .934.417.934.933v3.659l5.483-4.388a.933.933 0 01.583-.204H25.2c.515 0 .933-.42.933-.934V2.8a.934.934 0 00-.933-.933H2.8z"/><path d="M21.467 9.333H6.533a.933.933 0 110-1.866h14.934a.933.933 0 110 1.866zM14 13.067H6.533a.933.933 0 110-1.867H14a.933.933 0 110 1.867z"/></g></svg>
